X: 38
T: No_130_I_Will_Hide_My_Bullet.krn
N: Derived from No_130_I_Will_Hide_My_Bullet.krn
%%abc-version 2.0
%%abcx-abcm2ps-target-version 5.9.1 (29 Sep 2008)
%%abc-creator hum2abc beta
%%abcx-conversion-date 2019/03/15 08:35:44
%%humdrum-veritas 2163483803
%%humdrum-veritas-data 4201060449
%%linebreak <none>
%%barnumbers 0
L: 1/8
M: 2/4
K: F clef=bass
[K:clef=bass][M:2/4]C,C, G,3/G,/ [I:setbarnb 2]| 
G,2CG, | 
F,2C,C, | 
C,3z | 
G,G, G,3/F,/ | 
F,2F,F, | 
D,2C,C, | 
C,3z :|]  
D,D, D,3/C,/ | 
C,2C,A,, | 
A,,2G,,G,, | 
G,,3z | 
G,,G,, C,3/C,/ | 
C,2D,C, | 
C,2C,C, | 
C,3z |]  



